X:40DkNf
T:Duke of Norfolk, to Sound a Charge
S:John Ward. See &quot;John Anderson&quot;
Q:1/4=120
L:1/4
M:C
F:http://users.erols.com/olsonw/BM4.ABC
K:G dorian
G/|G3/2G/4G/4 B/4B/4B/ A/G/|FF/F/FF|GG/G/ B/4B/4B/ A/G/|D3z/B/|
B/B/ B/B/ B/BB/|B/B/ B/B/ B/BB/4B/4|B/B/4B/4 B/B/ c/c/ c/c/|d(c/B/)
A/G/ A/B/|.G3|]
